X: 17
T:Alexanders Rag Time Band
M:2/2
L:1/8
Q:1/8=220
K:G
{^A} B2|{^A} B3 z  {^A}  B2|{^A} B3 z  {^A}  B2|
{^A}  B2 =A2 F2 D2|G3 z {^d}  e2|
{^d} e3 z  {^d} e2|{^d} e3 z  {^d} e2
|{^d} e2 c2 G2 c2|e3 z e2|
{^c}  d2 e2 {^c} d2 e2|{^c} d2 e2  {^c} d2 B2|
G2 {^A} B2   G2 {^A} B2|G2 {^A} B2  G2 z|
A2 A2-A2 B2|^c2 A2 B2 c2|
d2 z d2 z|c B3 A2 {^A} B2|
{^A} B3 z  {^A}  B2|{^A} B3 z  {^A}  B2|
{^A}  B2 =A2 F2 D2|G3 z {^d}  e2|
{^d} e3 z  {^d} e2|{^d} e3 z  {^d} e2|
{^d} e2 c2 G2 c2|e3 z e2|
d3 z B2|A2 G2 B2 A2|
G4 g4|e2 g2-g2 d2|
{^c} d3 z d2|{^c} d3 z d2|
{^c} d2 d2 e2 f2|g6||
